src/icons/svg/bank.svg

<?xml version="1.0"?><svg xmlns="http://www.w3.org/2000/svg" width="40" height="40" viewBox="0 0 40 40"><path  d="m19.9 1.4l20 8v2.6h-2.7q0 0.6-0.4 1t-1 0.4h-31.7q-0.6 0-1-0.4t-0.4-1h-2.7v-2.6z m-14.6 13.3h5.3v15.9h2.7v-15.9h5.3v15.9h2.7v-15.9h5.3v15.9h2.6v-15.9h5.3v15.9h1.3q0.6 0 1 0.4t0.4 1v1.3h-34.5v-1.3q0-0.6 0.4-1t1-0.4h1.2v-15.9z m33.1 19.9q0.6 0 1 0.4t0.5 0.9v2.7h-39.9v-2.7q0-0.5 0.4-0.9t1-0.4h37z"></path></svg>

<svg xmlns="http://www.w3.org/2000/svg" width="40" height="40" viewBox="0 0 40 40"><path d="M19.9 1.4l20 8V12h-2.7q0 .6-.4 1t-1 .4H4.1q-.6 0-1-.4t-.4-1H0V9.4zM5.3 14.7h5.3v15.9h2.7V14.7h5.3v15.9h2.7V14.7h5.3v15.9h2.6V14.7h5.3v15.9h1.3q.6 0 1 .4t.4 1v1.3H2.7V32q0-.6.4-1t1-.4h1.2V14.7zm33.1 19.9q.6 0 1 .4t.5.9v2.7H0v-2.7q0-.5.4-.9t1-.4h37z"/></svg>
